X: 29622
T: North Star, The
R: hornpipe
M: 4/4
K: Cdorian
K: Bb Major
|:uF2|BfdB fBdB|eBgB fBdB|FBdB dBdB|AcBG F2 (GA)|
BfdB fBdB|eBgB fBdB|Ggfe dcBA|B2 d2 B2:|
|:uf2|f2 (df) (cf)(df)|babf edcB|DFBD EGcB|A2 F2 F2 (GA)|
Bdfd cege|dfga babf|gfdB AFGA|B2 d2 B2:|

